packages/foundations/assets/icons/functional/images/layout/grid_14.svg

<svg width="14" height="14" viewBox="0 0 14 14" fill="none" xmlns="http://www.w3.org/2000/svg">
<g clip-path="url(#clip0_185_1355)">
<path fill-rule="evenodd" clip-rule="evenodd" d="M11.2007 7.70109C11.3862 7.70109 11.564 7.77484 11.6952 7.90612C11.8263 8.03739 11.9 8.21544 11.9 8.40109V11.2055C11.8988 11.5912 11.5861 11.9033 11.2007 11.9033H8.39925C8.01305 11.9033 7.69998 11.5899 7.69998 11.2033V8.40109C7.69998 8.21544 7.77365 8.03739 7.90479 7.90612C8.03593 7.77484 8.21379 7.70109 8.39925 7.70109H11.2007ZM5.6007 7.70109C5.78616 7.70109 5.96403 7.77484 6.09516 7.90612C6.2263 8.03739 6.29998 8.21544 6.29998 8.40109V11.2055C6.2994 11.3911 6.22517 11.5689 6.09362 11.6998C5.96207 11.8307 5.78398 11.9039 5.59852 11.9033H2.79925C2.41305 11.9033 2.09998 11.5899 2.09998 11.2033V8.40109C2.09998 8.01449 2.41305 7.70109 2.79925 7.70109H5.6007ZM10.5 9.10109H9.09998V10.5033H10.5V9.10109ZM4.89998 9.10109H3.49998V10.5037H4.89998V9.10109ZM11.2007 2.09672C11.5869 2.09672 11.9 2.40979 11.9 2.79599V5.59745C11.9 5.98364 11.5869 6.29672 11.2007 6.29672H8.39925C8.01305 6.29672 7.69998 5.98364 7.69998 5.59745V2.79599C7.69998 2.61053 7.77365 2.43267 7.90479 2.30153C8.03593 2.17039 8.21379 2.09672 8.39925 2.09672H11.2007ZM5.6007 2.09672C5.9869 2.09672 6.29998 2.40979 6.29998 2.79599V5.59744C6.29998 5.78328 6.226 5.96147 6.09439 6.09268C5.96278 6.22388 5.78436 6.2973 5.59852 6.29672H2.79925C2.41305 6.29672 2.09998 5.98364 2.09998 5.59744V2.79599C2.09998 2.40979 2.41305 2.09672 2.79925 2.09672H5.6007ZM10.5 3.5H9.09998V4.9H10.5V3.5ZM4.89998 3.5H3.49998V4.9H4.89998V3.5Z" fill="#1A1C1F"/>
</g>
<defs>
<clipPath id="clip0_185_1355">
<rect width="14" height="14" fill="white"/>
</clipPath>
</defs>
</svg>

<svg xmlns="http://www.w3.org/2000/svg" width="14" height="14" fill="none"><g clip-path="url(#a)"><path fill="#1A1C1F" fill-rule="evenodd" d="M11.2 7.701a.7.7 0 0 1 .7.7v2.805a.7.7 0 0 1-.7.697H8.4a.7.7 0 0 1-.7-.7V8.401a.7.7 0 0 1 .7-.7zm-5.6 0a.7.7 0 0 1 .7.7v2.805a.7.7 0 0 1-.701.697h-2.8a.7.7 0 0 1-.699-.7V8.401a.7.7 0 0 1 .7-.7zm4.9 1.4H9.1v1.402h1.4zm-5.6 0H3.5v1.403h1.4zm6.3-7.004a.7.7 0 0 1 .7.699v2.801a.7.7 0 0 1-.7.7H8.4a.7.7 0 0 1-.7-.7V2.796a.7.7 0 0 1 .7-.7zm-5.6 0a.7.7 0 0 1 .7.699v2.801a.7.7 0 0 1-.701.7h-2.8a.7.7 0 0 1-.699-.7V2.796a.7.7 0 0 1 .7-.7zM10.5 3.5H9.1v1.4h1.4zm-5.6 0H3.5v1.4h1.4z" clip-rule="evenodd"/></g><defs><clipPath id="a"><path fill="#fff" d="M0 0h14v14H0z"/></clipPath></defs></svg>
